static/images/mobile/copyright/wikipedia-wordmark-uz.svg

<?xml version="1.0" encoding="UTF-8"?>
<svg width="120px" height="18px" viewBox="0 0 120 18" version="1.1" xmlns="http://www.w3.org/2000/svg" xmlns:xlink="http://www.w3.org/1999/xlink">
    <title>wikipedia-wordmark-uz</title>
    <g id="Page-1" stroke="none" stroke-width="1" fill="none" fill-rule="evenodd">
        <path d="M59.2976225,17.2989988 C58.5145539,17.2989988 56.7144999,17.3522073 56.7144999,17.3522073 L56.6873937,17.2989988 L56.6873937,16.7247484 C56.6873937,16.6735478 56.7144999,16.5952409 56.8440074,16.5952409 L57.4463679,16.5420324 C58.2565428,16.4637256 58.4914634,15.9416798 58.4914634,15.420638 L58.4914634,6.80688279 C58.4914634,6.20452229 58.1782359,6.10111707 57.4463679,6.04991643 L56.8440074,5.99570398 C56.6873937,5.97160956 56.6873937,5.91840105 56.6873937,5.89129483 L56.6873937,5.28993826 L56.7144999,5.23773369 C56.7144999,5.23773369 58.7494745,5.28993826 59.5325431,5.28993826 L63.3695795,5.28993826 C64.1526482,5.28993826 66.0069146,5.23773369 66.0069146,5.23773369 L66.061127,5.28993826 C66.0852215,6.41233666 66.2679375,7.43233378 66.4526614,8.4232168 L65.802112,8.52762596 C65.5159908,7.56083735 65.0200473,6.17842 63.3495009,6.17842 L61.2613178,6.17842 C60.7653743,6.17842 60.5043514,6.36113602 60.5043514,6.80387099 L60.5043514,10.5897067 L62.4610191,10.5897067 C63.1928871,10.5897067 63.3745992,10.2764793 63.4800123,9.75443351 L63.6356221,9.20628546 C63.6356221,9.12797859 63.6888306,9.07477008 63.7922358,9.07477008 L64.2339669,9.07477008 C64.2881793,9.07477008 64.2881793,9.1018763 64.2881793,9.15307694 C64.2339669,9.72632336 64.1315656,10.4591953 64.1315656,11.0856502 C64.1315656,11.7372035 64.2359747,12.2863555 64.2881793,12.8867081 L64.2339669,12.9399166 L63.7922358,12.9399166 C63.6627283,12.9399166 63.6075119,12.8867081 63.6075119,12.8084013 L63.4770005,12.2351548 C63.3725913,11.7121051 63.1376707,11.42498 62.4559994,11.42498 L60.5003357,11.42498 L60.5003357,15.419634 C60.5003357,15.9135696 60.7844491,16.4095131 61.257302,16.4095131 L63.7370194,16.4095131 C65.0682362,16.4095131 65.8011081,15.5742399 66.1123277,14.214913 L66.762877,14.2932199 L66.2398273,17.2939791 L66.1876227,17.3461837 C66.1876227,17.3461837 64.6475877,17.2939791 63.8645191,17.2939791 L59.2976225,17.2989988 L59.2976225,17.2989988 L59.2976225,17.2989988 Z M17.0788871,1.59872116e-14 C17.1651924,0.0863395274 17.2083707,0.237403637 17.2083707,0.453192698 C17.2083707,0.66038285 17.1651924,0.80281472 17.0788871,0.880488491 C16.742213,0.923665897 16.4400848,1.00567227 16.1725019,1.12650743 C15.9135187,1.23874238 15.7063451,1.35096151 15.5509806,1.46316479 C15.4042171,1.56676714 15.253153,1.75236021 15.0977879,2.01994382 C14.9423927,2.27892575 14.8344898,2.47315161 14.774079,2.60261956 C14.7222709,2.73211882 14.6230002,2.97813628 14.4762667,3.34067747 L8.98616202,16.8587655 C8.83077284,17.2644798 8.61928316,17.4716536 8.35169238,17.4802868 C8.10134927,17.4802868 7.89849183,17.273113 7.74311944,16.8587655 L2.51198187,3.28888403 C2.10626456,2.25302995 1.78687204,1.60992834 1.55380322,1.35957791 C1.32936369,1.10062673 0.854591034,0.940930377 0.129483602,0.880488491 C0.0431612005,0.79418248 -5.43565193e-13,0.647434582 -5.43565193e-13,0.440244245 C-5.43565193e-13,0.233087425 0.0345289604,0.0863395274 0.103586881,1.59872116e-14 C1.58449416,0.0307076327 2.47542563,0.0477606627 2.7763835,0.0511590899 L2.86158769,0.0517934406 C3.33635758,0.051810567 4.40675425,0.0345460868 6.07278099,1.59872116e-14 C6.14183274,0.0863395274 6.17636166,0.237403637 6.17636787,0.453192698 C6.17636166,0.66038285 6.14183274,0.80281472 6.07278099,0.880488491 C5.18365512,0.975459338 4.65708884,1.1567362 4.49308107,1.42431962 C4.32906409,1.68330229 4.40675425,2.20555309 4.72615155,2.99107129 L8.94731694,13.7900027 L9.07680055,13.7900027 L13.2591208,3.15939951 C13.5957645,2.43430607 13.6734547,1.89047587 13.4921913,1.5279065 C13.3195332,1.16536844 12.7757027,0.949562617 11.8606979,0.880488491 C11.7916282,0.81144696 11.7527832,0.66901509 11.7441628,0.453192698 C11.744151,0.237403637 11.782996,0.0863395274 11.8606979,1.59872116e-14 C13.3307058,0.0304818413 14.2529942,0.0475091446 14.6275654,0.0510819099 L14.8234484,0.0510819099 C15.077925,0.0475091446 15.8297374,0.0304818413 17.0788871,1.59872116e-14 Z M21.0223812,5.23773369 L21.0484835,5.28993826 L21.0484835,5.86418861 C21.0484835,5.94249547 20.9962789,5.99470005 20.8918697,5.99470005 L20.3437217,6.04790856 C19.5345507,6.12521149 19.2474256,6.33503373 19.2474256,6.85808343 L19.2474256,15.5501455 C19.2474256,16.1243958 19.5084484,16.4637256 20.3437217,16.5420324 L20.8918697,16.5952409 C20.9701766,16.5952409 21.0484835,16.6464416 21.0484835,16.7508507 L21.0484835,17.2989988 L21.0223812,17.3522073 C21.0223812,17.3522073 19.0386073,17.2989988 18.2294363,17.2989988 C17.4985722,17.2989988 15.4625937,17.3522073 15.4625937,17.3522073 L15.4103892,17.2989988 L15.4103892,16.7508507 C15.4103892,16.6464416 15.488696,16.5952409 15.5931052,16.5952409 L16.115151,16.5420324 C16.9765265,16.4637256 17.2375494,16.0460889 17.2375494,15.5501455 L17.2375494,6.85808343 C17.2375494,6.28584096 16.923318,6.12621543 16.115151,6.04991643 L15.5931052,5.99570398 C15.488696,5.99570398 15.4103892,5.97160956 15.4103892,5.89129483 L15.4103892,5.28993826 L15.4364915,5.23773369 C15.4364915,5.23773369 17.3153709,5.28530025 18.189947,5.28962449 L18.3077432,5.28993826 C19.012505,5.28993826 21.0223812,5.23773369 21.0223812,5.23773369 Z M26.9506124,15.5501455 C26.9506124,16.1243958 27.2899422,16.411521 28.0469086,16.5420324 L28.3340337,16.5952409 C28.4123406,16.6203393 28.4906475,16.6464416 28.4906475,16.7508507 L28.4906475,17.2989988 L28.4645452,17.3522073 C28.4645452,17.3522073 26.820101,17.2989988 26.0370323,17.2989988 C25.3061683,17.2989988 23.1657806,17.3522073 23.1657806,17.3522073 L23.113576,17.2989988 L23.113576,16.7508507 C23.113576,16.6464416 23.1918829,16.5952409 23.2962921,16.5952409 L23.8183378,16.5420324 C24.6014065,16.4637256 24.9407362,16.0460889 24.9407362,15.5501455 L24.9407362,6.85808343 C24.9407362,6.28584096 24.6536111,6.12621543 23.8183378,6.04991643 L23.2962921,5.99570398 C23.1918829,5.99570398 23.113576,5.97160956 23.113576,5.89129483 L23.113576,5.28993826 L23.1396783,5.23773369 C23.1396783,5.23773369 25.280066,5.28993826 26.0892369,5.28993826 C26.8211049,5.28993826 28.4645452,5.23773369 28.4645452,5.23773369 L28.4906475,5.28993826 L28.4906475,5.86418861 C28.4906475,5.94249547 28.4384429,5.96859776 28.3340337,5.99470005 L28.0469086,6.04790856 C27.2377376,6.20351836 26.9506124,6.33503373 26.9506124,6.85808343 L26.9506124,10.8005329 C27.811988,10.8005329 28.3079314,10.3588019 29.4564321,9.12998646 C30.5005237,7.9794779 31.3096946,7.01770897 31.3096946,6.51875369 C31.3096946,6.30893144 31.074774,6.07601872 30.5527282,5.99570398 C30.4483191,5.97160956 30.3961145,5.94349941 30.3961145,5.86519254 L30.3961145,5.26283204 L30.4222168,5.23873762 C30.4222168,5.23873762 32.5365022,5.2909422 33.2934685,5.2909422 C33.972128,5.2909422 35.1206287,5.23873762 35.1206287,5.23873762 L35.1989356,5.26283204 L35.1989356,5.86519254 C35.1989356,5.94349941 35.1206287,5.99570398 34.9901173,5.99570398 C33.972128,6.07401085 33.2673662,6.12621543 32.3276839,7.19640925 L30.082887,9.77852793 C29.6391481,10.250377 29.4825344,10.5354943 29.4825344,10.7453165 C29.4825344,10.9019303 29.5869436,11.0314378 29.717455,11.1880515 L33.6589006,15.938668 C33.972128,16.3030961 34.5985829,16.4607138 35.1206287,16.564119 L35.2511402,16.5892173 C35.329447,16.6143157 35.4338562,16.6665203 35.4338562,16.7448271 L35.4338562,17.2929752 L35.3555493,17.3190775 C35.3555493,17.3190775 33.972128,17.2929752 33.2412639,17.2929752 C32.5887067,17.2929752 31.6490244,17.3190775 31.6490244,17.3190775 L31.6229221,17.2929752 L31.6229221,16.9797477 C31.6229221,16.639414 31.5968198,16.3542967 31.2313877,15.9366601 L28.3340337,12.3335404 C27.9424994,11.8104907 27.5248628,11.6819871 26.9506124,11.6819871 L26.9506124,15.5501455 L26.9506124,15.5501455 Z M41.0227577,15.5501455 C41.0227577,16.1243958 41.2837806,16.4637256 42.1190538,16.5420324 L42.6672019,16.5952409 C42.7455087,16.5952409 42.8238156,16.6464416 42.8238156,16.7508507 L42.8238156,17.2989988 L42.7977133,17.3522073 C42.7977133,17.3522073 40.8139394,17.2989988 40.0047684,17.2989988 C39.2739044,17.2989988 37.2379259,17.3522073 37.2379259,17.3522073 L37.1857213,17.2989988 L37.1857213,16.7508507 C37.1857213,16.6464416 37.2640282,16.5952409 37.3684373,16.5952409 L37.8904831,16.5420324 C38.7518586,16.4637256 39.0128815,16.0460889 39.0128815,15.5501455 L39.0128815,6.85808343 C39.0128815,6.28584096 38.699654,6.12621543 37.8904831,6.04991643 L37.3684373,5.99570398 C37.2640282,5.99570398 37.1857213,5.97160956 37.1857213,5.89129483 L37.1857213,5.28993826 L37.2118236,5.23773369 C37.2118236,5.23773369 39.2739044,5.28993826 40.0830753,5.28993826 C40.7878371,5.28993826 42.7977133,5.23773369 42.7977133,5.23773369 L42.8238156,5.28993826 L42.8238156,5.86418861 C42.8238156,5.94249547 42.771611,5.99470005 42.6672019,5.99470005 L42.1190538,6.04790856 C41.3098829,6.12521149 41.0227577,6.33503373 41.0227577,6.85808343 L41.0227577,15.5501455 Z M46.6628598,6.90928408 C46.6628598,6.10011314 46.3235301,6.07401085 45.0967225,5.99570398 C44.9401088,5.99570398 44.9140065,5.91840105 44.9140065,5.86519254 L44.9140065,5.26483991 L44.9662111,5.23873762 C45.3577454,5.23873762 46.8977804,5.2909422 47.6547468,5.2909422 C48.3856109,5.2909422 49.4297024,5.23873762 50.3954871,5.23873762 C54.1000042,5.23873762 54.7786637,7.06489387 54.7786637,8.42422074 C54.7786637,9.99136198 54.0216973,12.4439732 50.3171802,12.4439732 C49.664623,12.4439732 49.1425772,12.3907646 48.6717321,12.1829503 L48.6717321,15.678649 C48.6717321,16.2518955 48.9849596,16.3844148 49.8212367,16.5139223 L50.3442864,16.5922291 C50.4486956,16.6173275 50.5280064,16.6454376 50.5280064,16.7478389 L50.5280064,17.295987 L50.503912,17.3491955 C50.503912,17.3491955 48.414725,17.295987 47.605554,17.295987 C46.87469,17.295987 44.9170183,17.3491955 44.9170183,17.3491955 L44.890916,17.295987 L44.890916,16.7478389 C44.890916,16.6434298 44.9431206,16.6173275 45.0475298,16.5922291 L45.5956778,16.5139223 C46.4048488,16.4095131 46.6658717,16.1745925 46.6658717,15.678649 L46.6628598,6.90928408 L46.6628598,6.90928408 L46.6628598,6.90928408 Z M48.6727361,11.4520862 C49.1947818,11.6619084 49.847339,11.6870068 50.3693848,11.6870068 C51.936526,11.6870068 52.6904806,10.7453165 52.6904806,8.7374482 C52.6904806,6.4926514 51.6724914,5.99670792 50.2388734,5.99670792 C48.9849596,5.99670792 48.6717321,6.23162851 48.6717321,6.91028801 L48.6727361,11.4520862 L48.6727361,11.4520862 Z M68.8189342,16.5952409 L69.4192868,16.5420324 C70.2033594,16.4637256 70.4643823,16.228805 70.4643823,15.420638 L70.4643823,6.80688279 C70.4643823,6.12621543 70.2796584,6.12621543 69.4192868,6.04991643 L68.8470444,5.99570398 C68.7426352,5.99570398 68.6623205,5.94349941 68.6623205,5.86519254 L68.6623205,5.2909422 L68.6874188,5.23873762 C68.6874188,5.23873762 70.9854241,5.2909422 71.4562693,5.2909422 C71.9502049,5.2909422 74.2231118,5.23873762 74.9017713,5.23873762 C79.2608535,5.23873762 81.4022451,7.95337561 81.4022451,11.42498 C81.4022451,15.9938844 78.1645574,17.3491955 75.2692112,17.3491955 C73.1810282,17.3491955 72.268452,17.295987 71.4592811,17.295987 C70.6752085,17.295987 68.6904306,17.3491955 68.6904306,17.3491955 L68.6653323,17.295987 L68.6653323,16.7478389 C68.6623205,16.6735478 68.715529,16.5952409 68.8189342,16.5952409 Z M74.6407485,16.5952409 C77.5109962,16.5952409 79.131346,15.527055 79.131346,11.8697228 C79.131346,9.15608875 78.5299894,5.99570398 74.144805,5.99570398 C73.1268157,5.99570398 72.4742585,6.15231771 72.4742585,6.80688279 L72.4742585,15.420638 C72.4742585,16.1494942 72.6559706,16.5952409 74.6407485,16.5952409 Z M87.3274645,15.5501455 C87.3274645,16.1243958 87.5884874,16.4637256 88.4237607,16.5420324 L88.9719087,16.5952409 C89.0502156,16.5952409 89.1285224,16.6464416 89.1285224,16.7508507 L89.1285224,17.2989988 L89.1024202,17.3522073 C89.1024202,17.3522073 87.1186462,17.2989988 86.3104792,17.2989988 C85.5786112,17.2989988 83.5436367,17.3522073 83.5436367,17.3522073 L83.4904281,17.2989988 L83.4904281,16.7508507 C83.4904281,16.6464416 83.568735,16.5952409 83.6731442,16.5952409 L84.1961939,16.5420324 C85.0565655,16.4637256 85.3185923,16.0460889 85.3185923,15.5501455 L85.3185923,6.85808343 C85.3185923,6.28584096 85.0043609,6.12621543 84.1961939,6.04991643 L83.6731442,5.99570398 C83.568735,5.99570398 83.4904281,5.97160956 83.4904281,5.89129483 L83.4904281,5.28993826 L83.5165304,5.23773369 C83.5165304,5.23773369 85.5786112,5.28993826 86.3857743,5.28993826 C87.0895321,5.28993826 89.1014162,5.23773369 89.1014162,5.23773369 L89.1255106,5.28993826 L89.1255106,5.86418861 C89.1255106,5.94249547 89.0712982,5.99470005 88.9688969,5.99470005 L88.4207489,6.04790856 C87.610574,6.12521149 87.3244527,6.33503373 87.3244527,6.85808343 L87.3274645,15.5501455 L87.3274645,15.5501455 L87.3274645,15.5501455 Z M111.464552,0.121685162 C111.827976,0.121685162 111.959491,0.38371198 112.167306,0.905757748 L117.518275,15.0531981 C117.884711,16.0721912 118.40776,16.4627216 119.451852,16.5671308 L119.737973,16.5922291 C119.869489,16.5922291 120,16.6695321 120,16.8020514 L120,17.295987 L119.921693,17.3491955 C119.921693,17.3491955 117.911817,17.295987 116.892824,17.295987 C115.979244,17.295987 113.420215,17.3491955 113.420215,17.3491955 L113.396121,17.295987 L113.396121,16.8020514 C113.396121,16.6695321 113.448326,16.5922291 113.581849,16.5922291 L114.312713,16.5390206 C115.303596,16.4617177 115.671036,16.1464824 115.409009,15.4176262 L113.816769,11.0043316 L108.385486,11.0043316 C107.759031,11.0043316 107.602417,11.1087407 107.472909,11.4460626 L105.957973,15.2318983 C105.69695,15.8884713 106.03628,16.4637256 107.002064,16.5420324 L107.759031,16.5952409 C107.86344,16.5952409 107.967849,16.6735478 107.967849,16.8030553 L107.967849,17.2989988 L107.915644,17.3522073 C107.915644,17.3522073 105.070495,17.2989988 104.44404,17.2989988 C104.229409,17.2989988 103.915965,17.3043049 103.587519,17.3115659 L103.257177,17.3193544 C102.653764,17.3343729 102.09383,17.3522073 102.09383,17.3522073 L102.040622,17.2989988 L102.040622,16.8030553 C102.040622,16.6735478 102.118929,16.5952409 102.250444,16.5952409 C103.399949,16.5169341 104.050498,16.3071118 104.781362,14.6365654 L110.575066,1.06237148 C110.861187,0.38371198 111.07101,0.121685162 111.464552,0.121685162 Z M95.5826847,5.24834527 C95.6432019,5.3159502 95.6734705,5.41853219 95.6734705,5.55607117 C95.6734705,5.69362019 95.6432019,5.79619215 95.5826847,5.86378703 C95.0192166,5.86814411 94.6622879,5.89395526 94.5119086,5.94118032 C94.3615092,5.98844554 94.4090957,6.19889022 94.6546379,6.57249428 L97.2007154,10.7127991 C97.2853571,10.8647245 97.3581523,10.9478603 97.4191012,10.9622466 C97.48005,10.976623 97.5538492,10.9058958 97.6405289,10.7500953 L100.041337,6.57249428 C100.254512,6.20295615 100.264431,5.99370615 100.071094,5.94468405 C99.877746,5.89569206 99.5517585,5.86874647 99.0931212,5.86378703 C99.032584,5.79697522 99.0023254,5.69751546 99.0023355,5.56539772 C99.0023254,5.43330006 99.032584,5.3338403 99.0931212,5.26699837 C99.4936608,5.27594342 99.842528,5.2813747 100.139692,5.2833123 C100.28827,5.28429113 100.428336,5.2849713 100.559893,5.28535781 L101.172808,5.28564663 C101.34121,5.28539156 101.521387,5.28461741 101.713339,5.2833123 C102.001237,5.2813747 102.29797,5.27594342 102.603548,5.26699837 C102.664065,5.3338403 102.694344,5.43330006 102.694344,5.56539772 C102.694344,5.69751546 102.664065,5.79697522 102.603548,5.86378703 C102.171334,5.87786219 101.837355,5.92200518 101.601611,5.99619591 C101.365858,6.0704268 101.116109,6.3309176 100.852365,6.77764823 L98.2760393,11.0858008 C98.0830229,11.388758 97.9732327,11.5871354 97.9466786,11.6809631 C97.9201145,11.7748008 97.9122135,11.9885886 97.9229757,12.3222963 L97.9229757,15.0395947 C97.9036299,15.7840421 98.0280475,16.2534114 98.2962083,16.4476727 C98.5643591,16.641954 99.0922679,16.7383016 99.8799446,16.7367555 C99.9404517,16.8043604 99.9707203,16.9069324 99.9707304,17.0444814 C99.9707203,17.1820304 99.9404517,17.2846024 99.8799446,17.3522073 C99.3898541,17.3424993 98.932552,17.3339357 98.5080485,17.3265668 C98.0835249,17.3191779 97.6060538,17.3152826 97.0756252,17.3149111 C96.5342637,17.3152826 96.0483897,17.3191779 95.6179931,17.3265668 C95.1875864,17.3339357 94.731971,17.3424993 94.2511467,17.3522073 C94.1906095,17.2846024 94.1603509,17.1820304 94.1603509,17.0444814 C94.1603509,16.9069324 94.1906095,16.8043604 94.2511467,16.7367555 C95.0388034,16.7383016 95.5667121,16.641954 95.834873,16.4476727 C96.1030238,16.2534114 96.2274413,15.7840421 96.2081056,15.0395947 L96.2081056,12.4845522 C96.2125128,12.1649798 96.1860391,11.9392352 96.1286643,11.8073183 C96.0712894,11.6754113 95.9565498,11.4846337 95.7844353,11.2350055 L93.1354747,7.11335378 C92.7513092,6.50667636 92.4397684,6.14596281 92.2008722,6.03117298 C91.961966,5.91641326 91.6433675,5.8606146 91.2450867,5.86378703 C91.1837162,5.79619215 91.1500945,5.69362019 91.1442114,5.55607117 C91.1383284,5.41853219 91.1652238,5.3159502 91.2249077,5.24834527 C91.5262686,5.25806335 91.8465437,5.26661687 92.1857429,5.27398575 C92.5249221,5.2813747 92.8905951,5.28526997 93.2827518,5.28564142 C93.6812033,5.28526997 94.0645254,5.2813747 94.4327183,5.27398575 L94.8059498,5.26622274 C95.0581358,5.26078513 95.3170504,5.25482399 95.5826847,5.24834527 Z M110.865203,2.94173624 L110.812998,2.94173624 L108.20277,9.57171749 C108.09836,9.83474825 108.280073,9.91104724 108.854323,9.91104724 L113.397125,9.91104724 L110.865203,2.94173624 Z" id="wikipedia-wordmark-uz" fill="#000000" fill-rule="nonzero"></path>
    </g>
</svg>

<svg xmlns="http://www.w3.org/2000/svg" width="120" height="18"><path fill="#000" fill-rule="nonzero" d="M59.298 17.299c-.783 0-2.584.053-2.584.053l-.027-.053v-.574c0-.051.027-.13.157-.13l.602-.053c.81-.078 1.045-.6 1.045-1.121V6.807c0-.602-.313-.706-1.045-.757l-.602-.054c-.157-.024-.157-.078-.157-.105V5.29l.027-.052s2.035.052 2.819.052h3.837c.783 0 2.637-.052 2.637-.052l.054.052c.024 1.122.207 2.142.392 3.133l-.65.105c-.287-.967-.783-2.35-2.453-2.35H61.26c-.496 0-.757.183-.757.626v3.786h1.957c.732 0 .914-.314 1.019-.836l.156-.548c0-.078.053-.131.156-.131h.442c.054 0 .054.027.054.078-.054.573-.156 1.306-.156 1.933 0 .651.104 1.2.156 1.8l-.054.054h-.442c-.13 0-.184-.053-.184-.132l-.131-.573c-.104-.523-.34-.81-1.021-.81H60.5v3.995c0 .494.284.99.757.99h2.48c1.331 0 2.064-.836 2.375-2.195l.65.078-.522 3.001-.052.052s-1.54-.052-2.323-.052l-4.567.005ZM17.078 0c.087.086.13.237.13.453 0 .207-.043.35-.13.427a3.173 3.173 0 0 0-.905.247 3.354 3.354 0 0 0-.622.336c-.147.104-.298.29-.453.557a7.123 7.123 0 0 0-.324.583l-.298.738-5.49 13.518c-.155.405-.367.613-.634.621-.25 0-.454-.207-.609-.621L2.512 3.289c-.406-1.036-.725-1.68-.958-1.93C1.329 1.102.854.942.129.88.043.794 0 .647 0 .44S.035.086.104 0c1.48.03 2.371.048 2.672.051h.086c.474 0 1.545-.016 3.21-.051.07.086.104.237.104.453 0 .207-.034.35-.103.427-.89.095-1.416.277-1.58.544-.164.26-.086.782.233 1.567L8.947 13.79h.13l4.182-10.63c.337-.726.414-1.27.233-1.632-.172-.363-.716-.578-1.631-.648-.07-.069-.108-.211-.117-.427 0-.216.039-.367.117-.453 1.47.03 2.392.048 2.767.051h.195C15.078.048 15.83.031 17.08 0Zm3.944 5.238.026.052v.574c0 .078-.052.13-.156.13l-.548.054c-.81.077-1.097.287-1.097.81v8.692c0 .574.261.914 1.097.992l.548.053c.078 0 .156.051.156.156v.548l-.026.053S19.04 17.3 18.23 17.3c-.73 0-2.766.053-2.766.053l-.053-.053v-.548c0-.105.079-.156.183-.156l.522-.053c.862-.078 1.123-.496 1.123-.992V6.858c0-.572-.315-.732-1.123-.808l-.522-.054c-.104 0-.183-.024-.183-.105V5.29l.026-.052s1.88.047 2.754.052h.118c.705 0 2.714-.052 2.714-.052Zm5.929 10.312c0 .574.339.862 1.096.992l.287.053c.078.025.157.051.157.156v.548l-.026.053s-1.645-.053-2.428-.053c-.73 0-2.871.053-2.871.053l-.052-.053v-.548c0-.105.078-.156.182-.156l.522-.053c.783-.078 1.123-.496 1.123-.992V6.858c0-.572-.287-.732-1.123-.808l-.522-.054c-.104 0-.182-.024-.182-.105V5.29l.026-.052s2.14.052 2.95.052c.731 0 2.375-.052 2.375-.052l.026.052v.574c0 .078-.053.105-.157.13l-.287.054c-.81.156-1.096.287-1.096.81v3.943c.861 0 1.357-.442 2.505-1.671 1.045-1.15 1.854-2.112 1.854-2.611 0-.21-.235-.443-.757-.523-.105-.024-.157-.053-.157-.13v-.603l.026-.024s2.115.052 2.871.052c.68 0 1.828-.052 1.828-.052l.078.024v.602c0 .078-.078.13-.209.13-1.018.079-1.723.131-2.662 1.201L30.083 9.78c-.444.471-.6.756-.6.966 0 .157.104.286.234.443l3.942 4.75c.313.365.94.523 1.462.626l.13.025c.078.025.183.078.183.156v.548l-.078.026s-1.384-.026-2.115-.026c-.652 0-1.592.026-1.592.026l-.026-.026v-.313c0-.34-.026-.626-.392-1.043l-2.897-3.603c-.392-.524-.81-.652-1.383-.652v3.868Zm14.072 0c0 .574.26.914 1.096.992l.548.053c.079 0 .157.051.157.156v.548l-.026.053s-1.984-.053-2.793-.053c-.731 0-2.767.053-2.767.053l-.052-.053v-.548c0-.105.078-.156.182-.156l.522-.053c.862-.078 1.123-.496 1.123-.992V6.858c0-.572-.313-.732-1.123-.808l-.522-.054c-.104 0-.182-.024-.182-.105V5.29l.026-.052s2.062.052 2.871.052c.705 0 2.715-.052 2.715-.052l.026.052v.574c0 .078-.052.13-.157.13l-.548.054c-.81.077-1.096.287-1.096.81v8.692Zm5.64-8.64c0-.81-.34-.836-1.566-.914-.157 0-.183-.078-.183-.13v-.601l.052-.026c.392 0 1.932.052 2.689.052.73 0 1.775-.052 2.74-.052 3.705 0 4.384 1.826 4.384 3.185 0 1.567-.757 4.02-4.462 4.02-.652 0-1.174-.053-1.645-.261v3.496c0 .573.313.705 1.15.835l.522.078c.105.025.184.053.184.156v.548l-.024.053s-2.09-.053-2.898-.053c-.731 0-2.689.053-2.689.053l-.026-.053v-.548c0-.105.052-.13.157-.156l.548-.078c.809-.104 1.07-.34 1.07-.835l-.003-8.77Zm2.01 4.542c.522.21 1.174.235 1.696.235 1.568 0 2.321-.942 2.321-2.95 0-2.244-1.018-2.74-2.451-2.74-1.254 0-1.567.235-1.567.913v4.542Zm20.146 5.143.6-.053c.784-.078 1.045-.313 1.045-1.121V6.807c0-.68-.184-.68-1.045-.757l-.572-.054c-.104 0-.185-.053-.185-.13V5.29l.025-.052s2.298.052 2.77.052c.493 0 2.766-.052 3.445-.052 4.359 0 6.5 2.714 6.5 6.186 0 4.569-3.237 5.924-6.133 5.924-2.088 0-3-.053-3.81-.053-.784 0-2.769.053-2.769.053l-.025-.053v-.548a.146.146 0 0 1 .154-.153Zm5.822 0c2.87 0 4.49-1.068 4.49-4.725 0-2.714-.601-5.874-4.986-5.874-1.018 0-1.67.156-1.67.81v8.615c0 .728.181 1.174 2.166 1.174Zm12.686-1.045c0 .574.261.914 1.097.992l.548.053c.078 0 .157.051.157.156v.548l-.027.053S87.12 17.3 86.31 17.3c-.731 0-2.766.053-2.766.053l-.054-.053v-.548c0-.105.079-.156.183-.156l.523-.053c.86-.078 1.123-.496 1.123-.992V6.858c0-.572-.315-.732-1.123-.808l-.523-.054c-.104 0-.183-.024-.183-.105V5.29l.027-.052s2.062.052 2.869.052c.704 0 2.715-.052 2.715-.052l.025.052v.574c0 .078-.055.13-.157.13l-.548.054c-.81.077-1.097.287-1.097.81l.003 8.692ZM111.465.122c.363 0 .494.262.702.784l5.351 14.147c.367 1.02.89 1.41 1.934 1.514l.286.025c.131 0 .262.078.262.21v.494l-.078.053s-2.01-.053-3.03-.053c-.913 0-3.472.053-3.472.053l-.024-.053v-.494c0-.132.052-.21.186-.21l.73-.053c.992-.077 1.359-.393 1.097-1.121l-1.592-4.414h-5.432c-.626 0-.783.105-.912.442l-1.515 3.786c-.261.656.078 1.232 1.044 1.31l.757.053c.104 0 .209.079.209.208v.496l-.052.053s-2.846-.053-3.472-.053c-.215 0-.528.005-.856.013l-.33.007c-.604.015-1.164.033-1.164.033l-.053-.053v-.496c0-.13.078-.208.21-.208 1.149-.078 1.8-.288 2.53-1.958l5.794-13.575c.286-.678.496-.94.89-.94ZM95.583 5.248c.06.068.09.17.09.308 0 .138-.03.24-.09.308-.564.004-.92.03-1.071.077-.15.047-.103.258.143.631l2.546 4.14c.084.153.157.236.218.25.061.015.135-.056.222-.212l2.4-4.178c.214-.369.223-.578.03-.627-.193-.05-.52-.076-.978-.081-.06-.067-.09-.166-.09-.299 0-.132.03-.231.09-.298a67.315 67.315 0 0 0 1.467.018h.613c.168 0 .348 0 .54-.002.288-.002.585-.007.89-.016.061.067.091.166.091.298 0 .133-.03.232-.09.299-.433.014-.767.058-1.002.132-.236.074-.486.335-.75.782l-2.576 4.308c-.193.303-.303.501-.33.595-.026.094-.034.308-.023.641v2.718c-.02.744.105 1.213.373 1.408.268.194.796.29 1.584.289.06.067.09.17.09.307 0 .138-.03.24-.09.308-.49-.01-.947-.018-1.372-.025a86.548 86.548 0 0 0-2.89 0c-.43.007-.886.015-1.367.025-.06-.067-.09-.17-.09-.308 0-.137.03-.24.09-.307.788.001 1.316-.095 1.584-.29.268-.194.392-.663.373-1.407v-2.555c.005-.32-.022-.546-.08-.678a3.83 3.83 0 0 0-.344-.572l-2.649-4.122c-.384-.606-.695-.967-.934-1.082-.239-.115-.558-.17-.956-.167-.061-.068-.095-.17-.1-.308-.007-.137.02-.24.08-.308.301.01.622.019.96.026a52.86 52.86 0 0 0 2.248 0l.373-.008.777-.018Zm15.282-2.306h-.052l-2.61 6.63c-.105.263.077.339.651.339h4.543l-2.532-6.97Z"/></svg>
